dist/assets/img/social/card-instagram.svg

<svg width="25" height="25" viewBox="0 0 25 25" fill="none" xmlns="http://www.w3.org/2000/svg">
<path fill-rule="evenodd" clip-rule="evenodd" d="M12.7112 0.214844C9.4318 0.214844 9.02024 0.229183 7.73224 0.287797C6.44675 0.346663 5.5693 0.550178 4.80153 0.848783C4.00734 1.1572 3.33365 1.56976 2.66248 2.24119C1.99081 2.91236 1.57824 3.58604 1.26882 4.37998C0.96946 5.148 0.765693 6.02571 0.707834 7.31069C0.650226 8.5987 0.635132 9.01051 0.635132 12.2899C0.635132 15.5693 0.649723 15.9796 0.708085 17.2676C0.767203 18.5531 0.970717 19.4305 1.26907 20.1983C1.57774 20.9925 1.9903 21.6662 2.66173 22.3373C3.33265 23.009 4.00633 23.4226 4.80002 23.731C5.56829 24.0296 6.446 24.2331 7.73123 24.292C9.01924 24.3506 9.43054 24.3649 12.7097 24.3649C15.9893 24.3649 16.3996 24.3506 17.6876 24.292C18.9731 24.2331 19.8516 24.0296 20.6198 23.731C21.4138 23.4226 22.0864 23.009 22.7574 22.3373C23.429 21.6662 23.8416 20.9925 24.151 20.1985C24.4479 19.4305 24.6516 18.5528 24.712 17.2678C24.7699 15.9798 24.785 15.5693 24.785 12.2899C24.785 9.01051 24.7699 8.59895 24.712 7.31094C24.6516 6.02545 24.4479 5.148 24.151 4.38023C23.8416 3.58604 23.429 2.91236 22.7574 2.24119C22.0857 1.56951 21.414 1.15695 20.6191 0.848783C19.8493 0.550178 18.9713 0.346663 17.6858 0.287797C16.3978 0.229183 15.9878 0.214844 12.7074 0.214844H12.7112ZM11.6271 2.39522C11.9486 2.39472 12.3073 2.39522 12.7103 2.39522C15.9344 2.39522 16.3165 2.40679 17.5897 2.46465C18.767 2.51848 19.4059 2.71521 19.8316 2.88048C20.3951 3.09934 20.7968 3.36097 21.2192 3.7836C21.6418 4.20622 21.9035 4.60872 22.1228 5.17222C22.2881 5.59737 22.4851 6.23634 22.5387 7.41365C22.5965 8.68656 22.6091 9.06894 22.6091 12.2915C22.6091 15.514 22.5965 15.8964 22.5387 17.1693C22.4848 18.3466 22.2881 18.9856 22.1228 19.4107C21.904 19.9742 21.6418 20.3755 21.2192 20.7978C20.7966 21.2205 20.3953 21.4821 19.8316 21.7009C19.4064 21.867 18.767 22.0632 17.5897 22.117C16.3167 22.1749 15.9344 22.1875 12.7103 22.1875C9.48605 22.1875 9.10393 22.1749 7.83102 22.117C6.6537 22.0627 6.01473 21.866 5.58883 21.7007C5.02533 21.4818 4.62283 21.2202 4.2002 20.7976C3.77758 20.3749 3.51595 19.9735 3.29659 19.4097C3.13131 18.9846 2.93434 18.3456 2.88075 17.1683C2.82289 15.8954 2.81132 15.513 2.81132 12.2884C2.81132 9.06391 2.82289 8.68355 2.88075 7.41063C2.93459 6.23332 3.13131 5.59435 3.29659 5.1687C3.51545 4.6052 3.77758 4.2027 4.2002 3.78007C4.62283 3.35745 5.02533 3.09582 5.58883 2.87646C6.01448 2.71043 6.6537 2.51421 7.83102 2.46012C8.94494 2.40981 9.37662 2.39472 11.6271 2.3922V2.39522ZM19.1551 4.4059C18.3552 4.4059 17.7061 5.05418 17.7061 5.85441C17.7061 6.65438 18.3552 7.30341 19.1551 7.30341C19.9551 7.30341 20.6041 6.65438 20.6041 5.85441C20.6041 5.05443 19.9551 4.4054 19.1551 4.4054V4.4059ZM12.7099 6.08628C9.2854 6.08628 6.50889 8.86279 6.50889 12.2873C6.50889 15.7118 9.2854 18.4871 12.7099 18.4871C16.1345 18.4871 18.91 15.7118 18.91 12.2873C18.91 8.86279 16.1342 6.08628 12.7097 6.08628H12.7099ZM12.7083 8.27208C14.9311 8.27208 16.7333 10.074 16.7333 12.2971C16.7333 14.5199 14.9311 16.3221 12.7083 16.3221C10.4851 16.3221 8.68316 14.5199 8.68316 12.2971C8.68316 10.074 10.4851 8.27208 12.7083 8.27208Z" fill="white"/>
</svg>

<svg width="25" height="25" viewBox="0 0 25 25" fill="none" xmlns="http://www.w3.org/2000/svg"><path fill-rule="evenodd" clip-rule="evenodd" d="M12.711.215c-3.28 0-3.69.014-4.979.073-1.285.059-2.163.262-2.93.56a5.913 5.913 0 00-2.14 1.393A5.928 5.928 0 001.27 4.38c-.3.768-.503 1.646-.561 2.93C.65 8.6.635 9.01.635 12.29c0 3.28.015 3.69.073 4.978.06 1.285.263 2.162.561 2.93a5.916 5.916 0 001.393 2.14A5.912 5.912 0 004.8 23.73c.768.299 1.646.502 2.931.561 1.288.059 1.7.073 4.979.073 3.28 0 3.69-.014 4.978-.073 1.285-.059 2.164-.262 2.932-.561a5.908 5.908 0 002.137-1.394 5.927 5.927 0 001.394-2.139c.297-.768.5-1.645.561-2.93.058-1.288.073-1.699.073-4.978 0-3.28-.015-3.691-.073-4.98-.06-1.285-.264-2.162-.561-2.93a5.927 5.927 0 00-1.394-2.139A5.902 5.902 0 0020.62.85c-.77-.3-1.649-.503-2.934-.562-1.288-.059-1.698-.073-4.979-.073h.004zm-1.084 2.18h1.083c3.224 0 3.607.012 4.88.07 1.177.053 1.816.25 2.242.415.563.22.965.481 1.387.904.423.422.684.825.904 1.388.165.425.362 1.064.416 2.242.057 1.273.07 1.655.07 4.877 0 3.223-.013 3.605-.07 4.878-.054 1.178-.25 1.817-.416 2.242a3.732 3.732 0 01-.904 1.387 3.733 3.733 0 01-1.387.903c-.426.166-1.065.362-2.242.416-1.273.058-1.656.07-4.88.07s-3.606-.012-4.879-.07c-1.177-.054-1.816-.251-2.242-.416a3.74 3.74 0 01-1.389-.903 3.743 3.743 0 01-.903-1.388c-.166-.425-.363-1.064-.416-2.242-.058-1.273-.07-1.655-.07-4.88 0-3.224.012-3.604.07-4.877.054-1.178.25-1.817.416-2.242.218-.564.48-.966.903-1.389a3.748 3.748 0 011.389-.904c.425-.166 1.065-.362 2.242-.416 1.114-.05 1.546-.065 3.796-.068v.003zm7.528 2.01a1.449 1.449 0 100 2.9 1.449 1.449 0 000-2.9zM12.71 6.087a6.201 6.201 0 100 12.403 6.201 6.201 0 000-12.403zm-.002 2.186a4.025 4.025 0 110 8.05 4.025 4.025 0 010-8.05z" fill="#fff"/></svg>
